Catalina-light/actions/16/format-text-direction-symbolic-rtl.svg

<?xml version="1.0" encoding="UTF-8" standalone="no"?>
<svg
   xmlns:dc="http://purl.org/dc/elements/1.1/"
   xmlns:cc="http://creativecommons.org/ns#"
   xmlns:rdf="http://www.w3.org/1999/02/22-rdf-syntax-ns#"
   xmlns:svg="http://www.w3.org/2000/svg"
   xmlns="http://www.w3.org/2000/svg"
   xmlns:sodipodi="http://sodipodi.sourceforge.net/DTD/sodipodi-0.dtd"
   xmlns:inkscape="http://www.inkscape.org/namespaces/inkscape"
   viewBox="0 0 16 16"
   id="svg3255"
   version="1.1"
   inkscape:version="0.91 r13725"
   sodipodi:docname="format-text-direction-symbolic-rtl.svg">
  <metadata
     id="metadata3263">
    <rdf:RDF>
      <cc:Work
         rdf:about="">
        <dc:format>image/svg+xml</dc:format>
        <dc:type
           rdf:resource="http://purl.org/dc/dcmitype/StillImage" />
      </cc:Work>
    </rdf:RDF>
  </metadata>
  <sodipodi:namedview
     pagecolor="#ffffff"
     bordercolor="#666666"
     borderopacity="1"
     objecttolerance="10"
     gridtolerance="10"
     guidetolerance="10"
     inkscape:pageopacity="0"
     inkscape:pageshadow="2"
     inkscape:window-width="640"
     inkscape:window-height="480"
     id="namedview3261"
     showgrid="false"
     inkscape:zoom="41.1875"
     inkscape:cx="3.6783005"
     inkscape:cy="8"
     inkscape:current-layer="svg3255" />
  <defs
     id="defs3051">
    <style
       type="text/css"
       id="current-color-scheme">
      .ColorScheme-Text {
        color:#bebebe;
      }
      </style>
  </defs>
  <path
     style="color:#bebebe;fill:currentColor;fill-opacity:1;stroke:none"
     class="ColorScheme-Text"
     d="m 6.8,2 0,1.6 4.8,0 c 0.342528,0 0.8,0.491312 0.8,0.8 l 0,0.8 -4,0 C 7.664584,5.2 7.01152,5.507168 6.6,5.975 6.18848,6.442832 5.994888,7.02352 6,7.6 6.0048,8.176496 6.215144,8.7622 6.625,9.225 7.034856,9.687832 7.67336,10 8.4,10 l 4,0 0.8,0 0.8,0 0,-0.85 0,-0.75 0,-4 C 14.000072,3.09256 12.94416,2 11.6,2 L 6.8,2 Z m 1.6,4.8 4,0 0,1.6 -4,0 C 8.081704,8.4 7.946472,8.312168 7.825,8.175 7.703528,8.037832 7.601984,7.823504 7.6,7.6 7.5984,7.376496 7.683736,7.157168 7.8,7.025 7.916264,6.892832 8.062112,6.8 8.4,6.8 Z M 5.2,9.2 2,11.6 5.2,14 l 0,-1.610938 8.75,0 0,-1.6 -8.75,0 L 5.2,9.2 Z"
     id="path3259"
     inkscape:connector-curvature="0" />
</svg>

<svg version="1.1" viewBox="0 0 16 16" xmlns="http://www.w3.org/2000/svg">
<defs>
<style id="current-color-scheme" type="text/css">.ColorScheme-Text {
        color:#bebebe;
      }</style>
</defs>
<path class="ColorScheme-Text" d="m6.8 2v1.6h4.8c0.34253 0 0.8 0.49131 0.8 0.8v0.8h-4c-0.73542 0-1.3885 0.30717-1.8 0.775s-0.60511 1.0485-0.6 1.625c0.0048 0.5765 0.21514 1.1622 0.625 1.625 0.40986 0.46283 1.0484 0.775 1.775 0.775h5.6v-5.6c7.2e-5 -1.3074-1.0558-2.4-2.4-2.4h-4.8zm1.6 4.8h4v1.6h-4c-0.3183 0-0.45353-0.087832-0.575-0.225s-0.22302-0.3515-0.225-0.575c-0.0016-0.2235 0.083736-0.44283 0.2-0.575s0.26211-0.225 0.6-0.225zm-3.2 2.4-3.2 2.4 3.2 2.4v-1.6109h8.75v-1.6h-8.75v-1.5891z" color="#bebebe" fill="currentColor"/>
</svg>
